X:18
T:Est il conclud (Gaillarde)
R:Gaillarde
C:Claude Gervaise
N:
O:France
Z:<anamnese@laposte.net> -- http://anamnese.fr.st
M:6/4
L:1/4
Q:1/4=120
K:C
V:1
G G G | A/G/F/E/ D C G3/2 F/ | E2 E GGG | A2 GFE2 |\
F2 F  AAA | G2 F E G3/2 F/ | E2 E  AAA | G2 F E G3/2 F/ |
|: E2 E E F3/2 E/ | D2 D E F3/2 E/ | D2 D C G3/2 F/ :| E2 E z6 |]
V:2
ccc | AA d A B/A/G/F/ | G2 G ccc | A/G/A/B/ c A A2 |\
A2 A ccc | c3/2 B/ A G/F/ G2 | G2 G ccc |
V:3
eee | f/e/d/c/ B c2 B | c2 c eee | f2 e d2 ^c |\
d2 d fff | e2 d c2 B | c2 c fff e2 d c2 B |
%/.../
